X:331
T:Lady Dainty.
C:John Malchair's Third Collection of Tunes
F:https://www.vwml.org/record/Malchair/3619/p33
F:www.vwml.org/topics/historic-dance-and-tune-books/Malchair
Z:Eric Conrad Jan 2020
N:NB1 No repeats in MS.  Assuming A part is repeated.  B part seems to be a finale.
M:C|
L:1/8
K:Dm
P:A
|: AG | FEDF E2^C2 | D4 E4 | F3A GFED | ^CDEF E2AG |
FEDF E2^C2 | D2F2 A2df | edcB AGFE | D6 :|
P:B
ag | fedf e2^c2 | d4 e4 | f3a gfed | ^cdef e2ag |
fafa egeg | fdef ^ca=B^c | defg a2gf | e4 d4 |]


